!!!COM: Palestrina, Giovanni Perluigi da
!!!OPR: Missa Viri Galilaei
!!!OTL: Agnus II
**kern	**kern	**kern	**kern	**kern	**kern
*Ibass	*Itenor	*Itenor	*Icalto	*Icalto	*Icant
!Bassus	!Tenor 2	!Tenor 1	!Altus 2	!Altus 1	!Cantus
*clefF4	*clefGv2	*clefGv2	*clefG2	*clefG2	*clefG2
*k[b-]	*k[b-]	*k[b-]	*k[b-]	*k[b-]	*k[b-]
*G:dor	*G:dor	*G:dor	*G:dor	*G:dor	*G:dor
*M4/2	*M4/2	*M4/2	*M4/2	*M4/2	*M4/2
=1	=1	=1	=1	=1	=1
0r	1r	0r	0g	0r	1r
.	[1g	.	.	.	[1dd
=2	=2	=2	=2	=2	=2
0r	1g]	0r	1b-	0r	1dd]
.	1c	.	2.cc	.	1ee
.	.	.	4b-	.	.
=3	=3	=3	=3	=3	=3
0r	1d	0r	4a	0r	1ff#
.	.	.	4g	.	.
.	.	.	2a	.	.
.	2.G	.	2g	.	2gg
.	.	.	[2b-	.	[2dd
.	4A	.	.	.	.
=4	=4	=4	=4	=4	=4
0r	4B-	0r	2b-]	0r	2dd]
.	4c	.	.	.	.
.	4d	.	1a	.	2dd
.	4e	.	.	.	.
.	2f	.	.	.	2cc
.	2g	.	2g	.	2b-
=5	=5	=5	=5	=5	=5
0r	1.d	0r	2f	0r	4a
.	.	.	.	.	4g
.	.	.	4d	.	4f
.	.	.	4e	.	4g
.	.	.	4f	.	4a
.	.	.	4g	.	4b-
.	2c	.	[2a	.	4cc
.	.	.	.	.	4dd
=6	=6	=6	=6	=6	=6
0r	1e-	0r	4a]	0r	4cc
.	.	.	4g	.	4b-
.	.	.	2.g	.	4b-
.	.	.	.	.	8a
.	.	.	.	.	8g
.	[1d	.	.	.	1a
.	.	.	8f#	.	.
.	.	.	8e	.	.
.	.	.	2f#	.	.
=7	=7	=7	=7	=7	=7
1r	1d]	0G	[0g	1r	4g
.	.	.	.	.	4a
.	.	.	.	.	4b-
.	.	.	.	.	4cc
[1G	1r	.	.	[1d	1dd
=8	=8	=8	=8	=8	=8
1G]	0r	1B-	1g]	1d]	2r
.	.	.	.	.	1g
1C	.	2.c	1r	1e	.
.	.	.	.	.	2g
.	.	4B-	.	.	.
=9	=9	=9	=9	=9	=9
1D	0r	4A	1.d	1f	1dd
.	.	4G	.	.	.
.	.	2A	.	.	.
2.G	.	2G	.	2g	[1dd
.	.	[2d	2g	[2b-	.
4A	.	.	.	.	.
=10	=10	=10	=10	=10	=10
2B-	1r	2d]	1.f	2b-]	1dd]
2BB-	.	2d	.	2b-	.
2F	2r	2c	.	2a	1r
2G	4B-	2B-	2d	2g	.
.	4c	.	.	.	.
=11	=11	=11	=11	=11	=11
1.D	4d	4A	0r	4f	0r
.	4e	4G	.	4e	.
.	2f	4F	.	4d	.
.	.	4G	.	4e	.
.	2d	4A	.	4f	.
.	.	4B-	.	4g	.
2C	[2e-	4c	.	[2a	.
.	.	4d	.	.	.
=12	=12	=12	=12	=12	=12
1E-	2e-]	4c	1r	4a]	0r
.	.	4B-	.	4g	.
.	2c	4A	.	1g	.
.	.	4G	.	.	.
1D	[1d	1A	1a	.	.
.	.	.	.	2f#	.
=13	=13	=13	=13	=13	=13
1G	2d]	2G	1b	1g	1dd
.	2g	2G	.	.	.
1r	[1g	1c	2cc	2r	1ee-
.	.	.	2c	2g	.
=14	=14	=14	=14	=14	=14
0r	1g]	4G	2.d	1b-	1.dd
.	.	4A	.	.	.
.	.	4B-	.	.	.
.	.	4c	4e	.	.
.	1f	2.d	4f	2a	.
.	.	.	4g	.	.
.	.	.	2a	[2f	2ff
.	.	4c	.	.	.
=15	=15	=15	=15	=15	=15
0r	2r	1.B-	2d	2f]	2dd
.	2f	.	1f	2d	2b-
.	2d	.	.	2B-	[1ff
.	2B-	2f	2d	[2d	.
=16	=16	=16	=16	=16	=16
0r	1f	2d	2B-	4d]	0ff]
.	.	.	.	4B-	.
.	.	2B-	2.f	2.b-	.
.	1F	1f	.	.	.
.	.	.	4e-	8a	.
.	.	.	.	8g	.
.	.	.	2c	2a	.
=17	=17	=17	=17	=17	=17
1BB-	2r	1B-	1d	2b-	2dd
.	2B-	.	.	2f	2dd
1E-	1G	2r	1B-	1g	1ee-
.	.	2B-	.	.	.
=18	=18	=18	=18	=18	=18
[0BB-	1.B-	1d	2r	2f	0dd
.	.	.	1f	2f	.
.	.	[1d	.	2d	.
.	2f	.	2d	2B-	.
=19	=19	=19	=19	=19	=19
0BB-]	2d	1d]	2B-	1f	2r
.	2B-	.	1f	.	2ff
.	1f	2r	.	1B-	2dd
.	.	2f	2d	.	2b-
=20	=20	=20	=20	=20	=20
2r	0B-	2d	0r	2b-	1ff
2B-	.	4B-	.	2.b-	.
.	.	4c	.	.	.
2G	.	4d	.	.	2.b-
.	.	4B-	.	4a	.
2E-	.	2e-	.	2g	.
.	.	.	.	.	4cc
=21	=21	=21	=21	=21	=21
1B-	2r	1d	2r	1f	2.dd
.	2.f	.	2b-	.	.
.	.	.	.	.	4ee
1F	.	1c	2b-	1f	1ff
.	8e	.	.	.	.
.	8d	.	.	.	.
.	2c	.	2a	.	.
=22	=22	=22	=22	=22	=22
1BB-	2d	1B-	1b-	2f	[0dd
.	1f	.	.	2d	.
2r	.	1r	1a	4d	.
.	.	.	.	4e	.
2D	2d	.	.	4f	.
.	.	.	.	4g	.
=23	=23	=23	=23	=23	=23
4D	1f	2r	1d	4a	1dd]
4E	.	.	.	4g	.
4F	.	2A	.	4a	.
4G	.	.	.	4b-	.
4A	1e	4A	1r	2cc	1r
4G	.	4B-	.	.	.
4A	.	4c	.	2a	.
4B-	.	4d	.	.	.
=24	=24	=24	=24	=24	=24
2c	0r	4e	1r	2.g	0r
.	.	4d	.	.	.
1c	.	4e	.	.	.
.	.	4f	.	4f	.
.	.	2.g	2r	2e	.
2B	.	.	2g	2d	.
.	.	4f	.	.	.
=25	=25	=25	=25	=25	=25
1c	1r	2e	4g	4c	2r
.	.	.	4f	4d	.
.	.	2c	4g	4e	2g
.	.	.	4a	4f	.
1G	2r	1d	4b-	1g	4g
.	.	.	4cc	.	4a
.	2G	.	2dd	.	4b-
.	.	.	.	.	4cc
=26	=26	=26	=26	=26	=26
0r	4G	1g	2b-	2r	4dd
.	4A	.	.	.	4cc
.	4B-	.	2b-	2d	4dd
.	4c	.	.	.	4ee
.	4d	1f	1a	4d	2.ff
.	4c	.	.	4e	.
.	4d	.	.	4f	.
.	4e	.	.	4g	4ee
=27	=27	=27	=27	=27	=27
0r	1f	0r	1d	4a	2dd
.	.	.	.	4g	.
.	.	.	.	4a	4cc
.	.	.	.	4b-	4b-
.	2f	.	2r	2cc	2a
.	2g	.	[2g	2b-	[2dd
=28	=28	=28	=28	=28	=28
0r	1e-	0r	2g]	1g	2dd]
.	.	.	2g	.	2cc
.	[1d	.	2f	2a	1dd
.	.	.	2g	[2g	.
=29	=29	=29	=29	=29	=29
1r	1d]	0r	1a	2g]	[0dd
.	.	.	.	2f#	.
2r	4G	.	1b-	2.g	.
.	4A	.	.	.	.
2G	4B-	.	.	.	.
.	4c	.	.	4a	.
=30	=30	=30	=30	=30	=30
4G	1d	2r	2g	0b-	1dd_
4A	.	.	.	.	.
4B-	.	2G	2g	.	.
4c	.	.	.	.	.
1d	1r	4G	2g	.	1dd_
.	.	4A	.	.	.
.	.	4B-	4d	.	.
.	.	4c	4e	.	.
=31	=31	=31	=31	=31	=31
2r	1r	4d	4f	1a	0dd]
.	.	4c	4e	.	.
2D	.	4d	4f	.	.
.	.	4e	4g	.	.
4D	2r	1f	[1a	1d	.
4E	.	.	.	.	.
4F	2A	.	.	.	.
4G	.	.	.	.	.
=32	=32	=32	=32	=32	=32
4A	4A	1.e	2a]	2c	1r
4G	4B-	.	.	.	.
4A	4c	.	2a	1cc	.
4B-	4d	.	.	.	.
1c	4e	.	1g	.	2r
.	4d	.	.	.	.
.	4e	2c	.	2cc	2g
.	4f	.	.	.	.
=33	=33	=33	=33	=33	=33
2.G	1g	0d	2g	0b-	4g
.	.	.	.	.	4a
.	.	.	2d	.	4b-
4A	.	.	.	.	4cc
1B-	2f	.	4d	.	4dd
.	.	.	4e	.	4cc
.	2f	.	4f	.	4dd
.	.	.	4g	.	4ee
=34	=34	=34	=34	=34	=34
0F	1f	2c	4a	1cc	1ff
.	.	.	4g	.	.
.	.	4F	4a	.	.
.	.	4G	4b-	.	.
.	1c	4A	2.cc	1a	1ee
.	.	4B-	.	.	.
.	.	2c	.	.	.
.	.	.	4a	.	.
=35	=35	=35	=35	=35	=35
0G	2r	2B-	2b-	1g	1dd
.	4G	2.d	2.b-	.	.
.	4A	.	.	.	.
.	4B-	.	.	1g	4g
.	4c	4c	4a	.	4a
.	[2d	2B-	2g	.	4b-
.	.	.	.	.	4cc
=36	=36	=36	=36	=36	=36
0D	4d]	2A	2f	2a	0dd
.	4c	.	.	.	.
.	2B-	2.d	2g	2.g	.
.	1A	.	2a	.	.
.	.	4c	.	8f#	.
.	.	.	.	8e	.
.	.	2A	2d	2f#	.
=37	=37	=37	=37	=37	=37
0G	0G	0B	0d	0g	0dd
==	==	==	==	==	==
*-	*-	*-	*-	*-	*-
!!!CDT: 1525/^1526/-1594/2/2
!!!OCY: Italia
!!!AGN: Mass (Parody)
!!!AST: renaissance, vocal
!!!ASW: Motet 1569 (Palestrina)
!!!PWK: Masses, Book 12
!!!RNB: Cadence finals: D
!!!YOR: Le Opere Complete, v. 29, p. 159
!!!YOO: Rome, Italy: Fratelli Scalera
!!!END: 1992//
!!!EED: John Miller
!!!YEC: Copyright 2000, John Miller
!!!YEN: United States of America
!!!YEM: Rights to all derivative electronic formats reserved.
!!!YEM: Refer to licensing agreement for further details.
!!!YEM: This file must be accompanied by the licensing agreement.
!!!YEM: A copy of the licensing agreement may be found at http://www.music-cog.ohio-state.edu/HumdrumDatabases/Palestrina/license.txt
!!!EMD: converted to Humdrum by Bret Aarden
